assets/icons/image/missing-filled.svg

<?xml version="1.0" encoding="UTF-8" standalone="no"?>
<svg
   viewBox="0 0 24 24"
   height="24"
   id="svg7384"
   version="1.1"
   width="24"
   sodipodi:docname="missing-filled.svg"
   inkscape:version="1.2 (1:1.2.1+202207142221+cd75a1ee6d)"
   xmlns:inkscape="http://www.inkscape.org/namespaces/inkscape"
   xmlns:sodipodi="http://sodipodi.sourceforge.net/DTD/sodipodi-0.dtd"
   xmlns="http://www.w3.org/2000/svg"
   xmlns:svg="http://www.w3.org/2000/svg"
   xmlns:rdf="http://www.w3.org/1999/02/22-rdf-syntax-ns#"
   xmlns:cc="http://creativecommons.org/ns#"
   xmlns:dc="http://purl.org/dc/elements/1.1/">
  <sodipodi:namedview
     id="namedview23"
     pagecolor="#ffffff"
     bordercolor="#666666"
     borderopacity="1.0"
     inkscape:pageshadow="2"
     inkscape:pageopacity="0.0"
     inkscape:pagecheckerboard="0"
     showgrid="true"
     inkscape:zoom="9.8994949"
     inkscape:cx="-8.93985"
     inkscape:cy="8.93985"
     inkscape:window-width="1920"
     inkscape:window-height="1016"
     inkscape:window-x="0"
     inkscape:window-y="0"
     inkscape:window-maximized="1"
     inkscape:current-layer="svg7384"
     inkscape:showpageshadow="2"
     inkscape:deskcolor="#d1d1d1">
    <inkscape:grid
       type="xygrid"
       id="grid902" />
  </sodipodi:namedview>
  <metadata
     id="metadata20854">
    <rdf:RDF>
      <cc:Work
         rdf:about="">
        <dc:format>image/svg+xml</dc:format>
        <dc:type
           rdf:resource="http://purl.org/dc/dcmitype/StillImage" />
      </cc:Work>
    </rdf:RDF>
  </metadata>
  <defs
     id="defs7386">
    <linearGradient
       id="linearGradient5606"
       inkscape:swatch="solid">
      <stop
         id="stop5608"
         offset="0"
         style="stop-color:#000000;stop-opacity:1;" />
    </linearGradient>
    <linearGradient
       id="linearGradient4526"
       inkscape:swatch="solid">
      <stop
         id="stop4528"
         offset="0"
         style="stop-color:#ffffff;stop-opacity:1;" />
    </linearGradient>
    <linearGradient
       id="linearGradient3600-4"
       inkscape:swatch="gradient">
      <stop
         id="stop3602-7"
         offset="0"
         style="stop-color:#f4f4f4;stop-opacity:1" />
      <stop
         id="stop3604-6"
         offset="1"
         style="stop-color:#dbdbdb;stop-opacity:1" />
    </linearGradient>
  </defs>
  <path
     id="path3446"
     style="color:#000000;fill:#808080;fill-opacity:1;-inkscape-stroke:none"
     d="M 6 3 C 4.9583354 3 4.0016946 3.1146082 3.2421875 3.5703125 C 2.4826804 4.0260167 2 4.8750022 2 6 L 2 18 C 2 19.124998 2.4826804 19.973983 3.2421875 20.429688 C 4.0016946 20.885392 4.9583354 21 6 21 L 18 21 C 19.041665 21 19.998306 20.885391 20.757812 20.429688 C 21.517321 19.973983 22 19.124998 22 18 L 22 6 C 22 4.8750022 21.517321 4.0260168 20.757812 3.5703125 C 19.998307 3.1146082 19.041665 3 18 3 L 6 3 z M 12.128906 5 L 12.130859 5 C 12.869419 5 13.46486 5.1040048 13.914062 5.3046875 L 13.914062 5.3066406 C 14.3866 5.4979892 14.756275 5.7434918 15.029297 6.0410156 A 2.3801926 2.3801926 0 0 1 15.591797 7.0527344 L 15.591797 7.0566406 L 15.59375 7.0585938 A 3.5702888 3.5702888 0 0 1 15.765625 8.125 C 15.765625 8.5555345 15.682498 8.9335044 15.521484 9.2695312 C 15.354638 9.6020578 15.15127 9.9157474 14.90625 10.210938 A 8.4356824 8.4356824 0 0 1 14.089844 11.068359 C 13.782986 11.34838 13.502401 11.641194 13.248047 11.949219 L 13.246094 11.951172 C 12.98824 12.249863 12.770719 12.582855 12.595703 12.949219 C 12.414855 13.310914 12.326172 13.722292 12.326172 14.173828 L 12.326172 14.392578 C 12.326172 14.420578 12.336691 14.445816 12.337891 14.472656 L 11.068359 14.472656 C 11.031019 14.249805 11.001953 14.021983 11.001953 13.779297 A 2.7745578 2.7745578 0 0 1 11.208984 12.6875 A 4.2703454 4.2703454 0 0 1 11.783203 11.771484 L 11.785156 11.767578 A 7.4579366 7.4579366 0 0 1 12.523438 10.951172 C 12.789459 10.686317 13.040109 10.419152 13.279297 10.154297 C 13.523149 9.8824415 13.719414 9.597899 13.871094 9.296875 C 14.039109 8.9876835 14.125 8.6460654 14.125 8.2832031 C 14.125 7.7009899 13.93036 7.2104929 13.548828 6.8417969 C 13.162631 6.4555993 12.598848 6.2675781 11.890625 6.2675781 C 11.048224 6.2675781 10.224606 6.4900716 9.421875 6.8984375 L 8.8945312 7.2910156 L 8.234375 6.2675781 L 9.0019531 5.734375 A 6.8290524 6.8290524 0 0 1 10.363281 5.2128906 C 10.917495 5.0705455 11.507024 5 12.128906 5 z M 11.8125 16.625 C 12.191697 16.625 12.46967 16.741256 12.679688 16.974609 C 12.896704 17.21496 13 17.485806 13 17.8125 C 13 18.136859 12.896704 18.410037 12.679688 18.650391 C 12.468504 18.884907 12.191697 19 11.8125 19 C 11.433303 19 11.15728 18.883741 10.947266 18.650391 C 10.730248 18.410037 10.625 18.138025 10.625 17.8125 A 1.1959301 1.1959301 0 0 1 10.947266 16.974609 C 11.158448 16.741256 11.432136 16.625 11.8125 16.625 z " />
  <g
     id="layer9"
     label="status"
     style="display:inline;fill:#808080;fill-opacity:1;stroke-width:0.809017"
     transform="matrix(1.2360674,0,0,1.2360674,-681.5449,257.97741)" />
  <g
     id="layer2"
     style="display:inline;fill:#808080;fill-opacity:1;stroke-width:0.809017"
     transform="matrix(1.2360674,0,0,1.2360674,-383.65241,-195.65932)" />
  <g
     id="g1812"
     style="display:inline;fill:#808080;fill-opacity:1;stroke-width:0.809017"
     transform="matrix(1.2360674,0,0,1.2360674,-383.65241,-195.65932)" />
  <g
     id="g6217"
     style="display:inline;fill:#808080;fill-opacity:1;stroke-width:0.809017"
     transform="matrix(1.2360674,0,0,1.2360674,-383.65241,-195.65932)" />
  <g
     id="layer3"
     style="display:inline;fill:#808080;fill-opacity:1;stroke-width:0.809017"
     transform="matrix(1.2360674,0,0,1.2360674,-383.65241,-195.65932)" />
  <g
     id="g1833"
     style="display:inline;fill:#808080;fill-opacity:1;stroke-width:0.809017"
     transform="matrix(1.2360674,0,0,1.2360674,-383.65241,-195.65932)" />
  <g
     id="layer1"
     style="display:inline;fill:#808080;fill-opacity:1;stroke-width:0.809017"
     transform="matrix(1.2360674,0,0,1.2360674,-383.65241,-195.65932)" />
</svg>

<svg height="24" width="24" xmlns="http://www.w3.org/2000/svg"><path style="color:#000;fill:gray;fill-opacity:1;-inkscape-stroke:none" d="M6 3c-1.042 0-1.998.115-2.758.57C2.482 4.026 2 4.875 2 6v12c0 1.125.483 1.974 1.242 2.43.76.455 1.716.57 2.758.57h12c1.042 0 1.998-.115 2.758-.57C21.518 19.974 22 19.125 22 18V6c0-1.125-.483-1.974-1.242-2.43C19.998 3.115 19.042 3 18 3H6zm6.129 2h.002c.738 0 1.334.104 1.783.305v.002c.473.191.842.436 1.115.734a2.38 2.38 0 0 1 .563 1.012v.004l.002.002a3.57 3.57 0 0 1 .172 1.066c0 .43-.084.809-.245 1.145-.166.332-.37.646-.615.94a8.436 8.436 0 0 1-.816.858c-.307.28-.588.573-.842.881l-.002.002a4.468 4.468 0 0 0-.65.998 2.71 2.71 0 0 0-.27 1.225v.219c0 .028.01.053.012.08h-1.27a4.146 4.146 0 0 1-.066-.694 2.775 2.775 0 0 1 .207-1.091 4.27 4.27 0 0 1 .574-.917l.002-.003a7.458 7.458 0 0 1 .738-.817c.266-.265.517-.532.756-.797a3.93 3.93 0 0 0 .592-.857 2.1 2.1 0 0 0 .254-1.014c0-.582-.195-1.073-.576-1.441-.386-.386-.95-.574-1.658-.574-.843 0-1.666.222-2.47.63l-.526.393-.66-1.023.767-.534a6.83 6.83 0 0 1 1.361-.521A7.08 7.08 0 0 1 12.13 5zm-.316 11.625c.379 0 .657.116.867.35.217.24.32.51.32.837 0 .325-.103.598-.32.838-.211.235-.488.35-.867.35-.38 0-.656-.116-.866-.35a1.196 1.196 0 0 1-.322-.837 1.196 1.196 0 0 1 .322-.838c.211-.234.485-.35.866-.35z"/></svg>
